X:1
T:Title
%%score [ ( 1 2 ) ( 3 4 ) ] { ( 5 6 ) | ( 7 8 ) }
L:1/8
Q:1/4=120
M:4/4
K:F
V:1 treble nm="Midi_74"
V:2 treble 
V:3 bass nm="Midi_74"
V:4 bass 
V:5 treble nm="Org."
V:6 treble 
V:7 bass 
V:8 bass 
V:1
 (c6 A2) | F4 (f3 e) |{e} d8 || (c6 A2) | F4 d4 | c4 =B4 | c8 || (G6 E2) | C4 (c3 B) |{B} A8 | %10
 (A6 F2) | D4 G4 |"^William Henry Havergal\n(1793-1870)" F4 E4 | F8 |] %14
V:2
 F8 | F4 A4 | B8 || F8 | F4 (F2 A2) | G4 (G2 F2) | E8 || C8 | C4 E4 | F8 | (F6 A,2) | B,4 D4 | %12
 C4 (C2 B,2) | A,8 |] %14
V:3
 C8 | C4 C4 | B,8 || C8 | D4 D4 | (E2 D2) D4 | C8 || C8 | C4 C4 | C8 | C8 | B,4 B,4 | %12
 (A,2 G,2) G,4 | F,8 |] %14
V:4
 A,8 | (A,4 F,4) | B,8 || A,,8 | D,4 (D,2 F,2) | G,4 G,4 | C,8 || E,8 | E,4 C,4 | F,8 | F,8 | %11
 B,4 (G,2 B,,2) | C,4 C,4 | F,,8 |] %14
V:5
 c6 A2 | F4 f3 e |{e} d8 || c6 A2 | F4 [Dd]4 | [Gc]4 [D=B]4 | c8 || G6 E2 | C4 c3 B |{B} A8 | %10
 A6 F2 | D4 G4 | F4 E4 | F8 |] %14
V:6
 [CF]8 | C4 [FA]4 | [FB]8 || [CF]8 | [A,D]4 F2 A2 | E2 D2 G2 F2 | E8 || C8 | x4 [CE]4 | [CF]8 | %10
 [CF]8 | B,4 [B,D]4 | C4 C2 B,2 | A,8 |] %14
V:7
 x8 | x8 | x4 x4 || x8 | x8 | x8 | x8 || x8 | G,4 x4 | x8 | x8 | x8 | A,2 G,2 G,4 | F,8 |] %14
V:8
 A,8 | (A,4 F,4) | B,8 || A,,8 | D,4 D,2 F,2 | G,4 G,4 | C,8 || E,8 | E,4 C,4 | F,8 | F,8 | %11
 B,4 G,2 B,,2 | C,4 C,4 | F,,8 |] %14

